usr/share/icons/biglinux-icons-material-dark/22/actions/kstars_satellites.svg

<svg xmlns="http://www.w3.org/2000/svg" viewBox="0 0 22 22">
  <defs id="defs3051">
    <style type="text/css" id="current-color-scheme">
      .ColorScheme-Text {
        color:#dedede;
      }
      </style>
  </defs>
 <path 
     style="fill:currentColor;fill-opacity:1;stroke:none" 
     d="M 14 3 L 8.7363281 10.177734 A 4.5 4.5 0 0 1 9.1855469 10.333984 C 8.6642326 10.122856 8.0970333 10 7.5 10 C 6.3069911 10.0012 5.1632886 10.476121 4.3203125 11.320312 A 4.5 4.5 0 0 0 3.6933594 12.107422 L 5.7871094 14.201172 L 4.390625 16.105469 A 3.5 3.5 0 0 0 5.8964844 17.607422 L 7.7988281 16.212891 L 9.8945312 18.308594 A 4.5 4.5 0 0 0 10.679688 17.679688 C 11.523881 16.836711 11.998786 15.693009 12 14.5 C 12.000001 13.918791 11.88031 13.367411 11.679688 12.857422 A 4.5 4.5 0 0 1 11.824219 13.261719 L 19 8 L 14 3 z M 5.9140625 3.0859375 L 3.0859375 5.9160156 L 6.7578125 9.5859375 L 9.5859375 6.7578125 L 5.9140625 3.0859375 z M 14.117188 4.53125 L 17.46875 7.8828125 L 11.427734 12.314453 A 4.5 4.5 0 0 1 11.599609 12.662109 C 11.151345 11.664248 10.352692 10.863145 9.3574219 10.410156 A 4.5 4.5 0 0 1 9.6894531 10.570312 L 14.117188 4.53125 z M 7.5 11 C 9.4329966 11 11 12.567003 11 14.5 C 10.9988 15.427807 10.629304 16.317185 9.9726562 16.972656 L 5.0273438 12.027344 C 5.6828146 11.370696 6.5721925 11.001176 7.5 11 z M 15.242188 12.414062 L 12.414062 15.244141 L 16.085938 18.916016 L 18.914062 16.085938 L 15.242188 12.414062 z M 3.7480469 16.980469 L 3 18 L 4 19 L 5.0195312 18.251953 A 4.5 4.5 0 0 1 3.7480469 16.980469 z "
     class="ColorScheme-Text"
     />
</svg>

<svg xmlns="http://www.w3.org/2000/svg" viewBox="0 0 22 22">
<defs id="defs3051">
<style id="current-color-scheme" type="text/css">
.ColorScheme-Text{color:#dedede}
</style>
</defs>
<path d="m14 3-5.264 7.178a5 5 0 0 1 .45.156A4.5 4.5 0 0 0 7.5 10a4.5 4.5 0 0 0-3.18 1.32 4.5 4.5 0 0 0-.627.787l2.094 2.094-1.396 1.904a3.5 3.5 0 0 0 1.505 1.502L7.8 16.213l2.096 2.096a4.5 4.5 0 0 0 .785-.63A4.5 4.5 0 0 0 12 14.5c0-.581-.12-1.133-.32-1.643a5 5 0 0 1 .144.405L19 8zm-8.086.086-2.828 2.83 3.672 3.67 2.828-2.828zm8.203 1.445 3.352 3.352-6.041 4.431a5 5 0 0 1 .172.348 4.5 4.5 0 0 0-2.243-2.252 5 5 0 0 1 .332.16zM7.5 11a3.5 3.5 0 0 1 3.5 3.5 3.5 3.5 0 0 1-1.027 2.473l-4.946-4.946A3.5 3.5 0 0 1 7.5 11m7.742 1.414-2.828 2.83 3.672 3.672 2.828-2.83zM3.748 16.98 3 18l1 1 1.02-.748a4.5 4.5 0 0 1-1.272-1.272" class="ColorScheme-Text" style="fill:currentColor;fill-opacity:1;stroke:none"/>
</svg>
